dist/img/icon-404.svg

<svg width="456" height="160" viewBox="0 0 456 160" fill="none" xmlns="http://www.w3.org/2000/svg">
<path d="M82.4794 157V127.08H7.89938L0.859375 96.9399L80.7194 1.89992H123.839V95.1799H143.419V127.08H123.839V157H82.4794ZM45.7394 95.3999H82.4794V51.1799L45.7394 95.3999Z" fill="#E1E1E1"/>
<path d="M281.459 136.98C268.406 152.38 251.172 160.08 229.759 160.08C208.346 160.08 191.112 152.453 178.059 137.2C165.152 121.8 158.699 102.733 158.699 79.9999C158.699 57.5599 165.299 38.6399 178.499 23.2399C191.699 7.69325 208.932 -0.0800781 230.199 -0.0800781C251.612 -0.0800781 268.772 7.61992 281.679 23.0199C294.732 38.4199 301.259 57.4133 301.259 79.9999C301.259 102.44 294.659 121.433 281.459 136.98ZM209.519 110.58C214.799 118.353 221.692 122.24 230.199 122.24C238.706 122.24 245.526 118.353 250.659 110.58C255.792 102.66 258.359 92.4666 258.359 79.9999C258.359 67.6799 255.646 57.5599 250.219 49.6399C244.939 41.7199 238.119 37.7599 229.759 37.7599C221.252 37.7599 214.432 41.6466 209.299 49.4199C204.166 57.1933 201.599 67.3866 201.599 79.9999C201.599 92.4666 204.239 102.66 209.519 110.58Z" fill="#E1E1E1"/>
<path d="M394.862 157V127.08H320.282L313.242 96.9399L393.102 1.89992H436.222V95.1799H455.802V127.08H436.222V157H394.862ZM358.122 95.3999H394.862V51.1799L358.122 95.3999Z" fill="#E1E1E1"/>
</svg>

<svg width="456" height="160" fill="none" xmlns="http://www.w3.org/2000/svg"><path d="M82.48 157v-29.92H7.9L.86 96.94 80.72 1.9h43.119v93.28h19.58v31.9h-19.58V157h-41.36zM45.74 95.4h36.74V51.18L45.74 95.4zm235.719 41.58c-13.053 15.4-30.287 23.1-51.7 23.1-21.413 0-38.647-7.627-51.7-22.88-12.907-15.4-19.36-34.467-19.36-57.2 0-22.44 6.6-41.36 19.8-56.76 13.2-15.547 30.433-23.32 51.7-23.32 21.413 0 38.573 7.7 51.48 23.1 13.053 15.4 19.58 34.393 19.58 56.98 0 22.44-6.6 41.433-19.8 56.98zm-71.94-26.4c5.28 7.773 12.173 11.66 20.68 11.66s15.327-3.887 20.46-11.66c5.133-7.92 7.7-18.113 7.7-30.58 0-12.32-2.713-22.44-8.14-30.36-5.28-7.92-12.1-11.88-20.46-11.88-8.507 0-15.327 3.887-20.46 11.66-5.133 7.773-7.7 17.967-7.7 30.58 0 12.467 2.64 22.66 7.92 30.58zM394.862 157v-29.92h-74.58l-7.04-30.14 79.86-95.04h43.12v93.28h19.58v31.9h-19.58V157h-41.36zm-36.74-61.6h36.74V51.18l-36.74 44.22z" fill="#E1E1E1"/></svg>
